src/4-icons/fold.svg

<svg width="260" height="260" viewBox="0 0 260 260" fill="none" xmlns="http://www.w3.org/2000/svg">
<path fill-rule="evenodd" clip-rule="evenodd" d="M171.509 145.385H207.973C213.047 145.385 213.047 153.076 207.973 153.076H171.509L184.03 165.744C185.516 167.247 185.516 169.687 184.03 171.19C182.545 172.693 180.133 172.693 178.648 171.19L159.625 151.944C158.139 150.441 158.139 148.001 159.625 146.498L178.648 127.251C180.133 125.748 182.545 125.748 184.03 127.251C185.516 128.754 185.516 131.194 184.03 132.697L171.509 145.385ZM125.939 49.5618C126.016 49.6008 126.112 49.6398 126.19 49.6984C127.598 50.4987 128.196 51.8651 128.119 53.212V253.155C128.119 255.282 126.421 257 124.318 257H17.8007C15.6978 257 14 255.282 14 253.155V53.0363C14 50.9086 15.6978 49.1909 17.8007 49.1909H29.203V6.85215C29.203 3.98272 32.1741 2.12833 34.7015 3.41664L125.939 49.5618ZM36.8238 13.079V49.1909H108.189L36.8238 13.079ZM21.6015 56.8817V249.29H120.498V56.8817H21.6015ZM150.923 56.8817C148.82 56.8817 147.123 55.164 147.123 53.0363C147.123 50.9086 148.82 49.1909 150.923 49.1909H166.146C168.249 49.1909 169.946 50.9086 169.946 53.0363C169.946 55.164 168.249 56.8817 166.146 56.8817H150.923ZM196.571 56.8817C194.468 56.8817 192.77 55.164 192.77 53.0363C192.77 50.9086 194.468 49.1909 196.571 49.1909H211.793C213.896 49.1909 215.594 50.9086 215.594 53.0363C215.594 55.164 213.896 56.8817 211.793 56.8817H196.571ZM238.399 53.0363C238.399 50.9086 240.096 49.1909 242.199 49.1909C244.302 49.1909 246 50.9086 246 53.0363V68.4375C246 70.5652 244.302 72.2829 242.199 72.2829C240.096 72.2829 238.399 70.5652 238.399 68.4375V53.0363ZM238.399 99.2204C238.399 97.0928 240.096 95.375 242.199 95.375C244.302 95.375 246 97.0928 246 99.2204V114.622C246 116.749 244.302 118.467 242.199 118.467C240.096 118.467 238.399 116.749 238.399 114.622V99.2204ZM238.399 145.405C238.399 143.277 240.096 141.559 242.199 141.559C244.302 141.559 246 143.277 246 145.405V160.806C246 162.933 244.302 164.651 242.199 164.651C240.096 164.651 238.399 162.933 238.399 160.806V145.405ZM238.399 191.569C238.399 189.442 240.096 187.724 242.199 187.724C244.302 187.724 246 189.442 246 191.569V206.97C246 209.098 244.302 210.816 242.199 210.816C240.096 210.816 238.399 209.098 238.399 206.97V191.569ZM238.399 237.753C238.399 235.626 240.096 233.908 242.199 233.908C244.302 233.908 246 235.626 246 237.753V253.155C246 255.282 244.302 257 242.199 257C240.096 257 238.399 255.282 238.399 253.155V237.753ZM211.793 249.309C213.896 249.309 215.594 251.027 215.594 253.155C215.594 255.282 213.896 257 211.793 257H196.571C194.468 257 192.77 255.282 192.77 253.155C192.77 251.027 194.468 249.309 196.571 249.309H211.793ZM166.146 249.309C168.249 249.309 169.946 251.027 169.946 253.155C169.946 255.282 168.249 257 166.146 257H150.923C148.82 257 147.123 255.282 147.123 253.155C147.123 251.027 148.82 249.309 150.923 249.309H166.146Z" fill="black" stroke="black" stroke-width="5" stroke-miterlimit="10"/>
</svg>

<svg width="260" height="260" viewBox="0 0 260 260" fill="none" xmlns="http://www.w3.org/2000/svg"><path fill-rule="evenodd" clip-rule="evenodd" d="M171.509 145.385h36.464c5.074 0 5.074 7.691 0 7.691h-36.464l12.521 12.668a3.884 3.884 0 0 1 0 5.446 3.776 3.776 0 0 1-5.382 0l-19.023-19.246a3.884 3.884 0 0 1 0-5.446l19.023-19.247a3.776 3.776 0 0 1 5.382 0 3.884 3.884 0 0 1 0 5.446l-12.521 12.688Zm-45.57-95.823c.077.039.173.078.251.136 1.408.8 2.006 2.167 1.929 3.514v199.943c0 2.127-1.698 3.845-3.801 3.845H17.801c-2.103 0-3.801-1.718-3.801-3.845V53.036c0-2.127 1.698-3.845 3.8-3.845h11.403V6.852c0-2.87 2.971-4.724 5.499-3.435l91.237 46.145ZM36.824 13.079v36.112h71.365L36.824 13.079ZM21.602 56.882V249.29h98.896V56.882H21.601Zm129.321 0c-2.103 0-3.8-1.718-3.8-3.846 0-2.127 1.697-3.845 3.8-3.845h15.223c2.103 0 3.8 1.718 3.8 3.845 0 2.128-1.697 3.846-3.8 3.846h-15.223Zm45.648 0c-2.103 0-3.801-1.718-3.801-3.846 0-2.127 1.698-3.845 3.801-3.845h15.222c2.103 0 3.801 1.718 3.801 3.845 0 2.128-1.698 3.846-3.801 3.846h-15.222Zm41.828-3.846c0-2.127 1.697-3.845 3.8-3.845 2.103 0 3.801 1.718 3.801 3.845v15.401c0 2.128-1.698 3.846-3.801 3.846s-3.8-1.718-3.8-3.846v-15.4Zm0 46.184c0-2.127 1.697-3.845 3.8-3.845 2.103 0 3.801 1.718 3.801 3.845v15.402c0 2.127-1.698 3.845-3.801 3.845s-3.8-1.718-3.8-3.845V99.22Zm0 46.185c0-2.128 1.697-3.846 3.8-3.846 2.103 0 3.801 1.718 3.801 3.846v15.401c0 2.127-1.698 3.845-3.801 3.845s-3.8-1.718-3.8-3.845v-15.401Zm0 46.164c0-2.127 1.697-3.845 3.8-3.845 2.103 0 3.801 1.718 3.801 3.845v15.401c0 2.128-1.698 3.846-3.801 3.846s-3.8-1.718-3.8-3.846v-15.401Zm0 46.184c0-2.127 1.697-3.845 3.8-3.845 2.103 0 3.801 1.718 3.801 3.845v15.402c0 2.127-1.698 3.845-3.801 3.845s-3.8-1.718-3.8-3.845v-15.402Zm-26.606 11.556c2.103 0 3.801 1.718 3.801 3.846 0 2.127-1.698 3.845-3.801 3.845h-15.222c-2.103 0-3.801-1.718-3.801-3.845 0-2.128 1.698-3.846 3.801-3.846h15.222Zm-45.647 0c2.103 0 3.8 1.718 3.8 3.846 0 2.127-1.697 3.845-3.8 3.845h-15.223c-2.103 0-3.8-1.718-3.8-3.845 0-2.128 1.697-3.846 3.8-3.846h15.223Z" fill="#000" stroke="#000" stroke-width="5" stroke-miterlimit="10"/></svg>
